icons/tango/actions/document-new.svg

<?xml version="1.0" encoding="UTF-8" standalone="no"?>
<!-- Created with Inkscape (http://www.inkscape.org/) -->
<svg
   xmlns:dc="http://purl.org/dc/elements/1.1/"
   xmlns:cc="http://creativecommons.org/ns#"
   xmlns:rdf="http://www.w3.org/1999/02/22-rdf-syntax-ns#"
   xmlns:svg="http://www.w3.org/2000/svg"
   xmlns="http://www.w3.org/2000/svg"
   xmlns:xlink="http://www.w3.org/1999/xlink"
   xmlns:sodipodi="http://sodipodi.sourceforge.net/DTD/sodipodi-0.dtd"
   xmlns:inkscape="http://www.inkscape.org/namespaces/inkscape"
   width="48.000000px"
   height="48.000000px"
   id="svg249"
   sodipodi:version="0.32"
   inkscape:version="0.46"
   sodipodi:docbase="/home/jimmac/src/cvs/tango-icon-theme/scalable/actions"
   sodipodi:docname="document-new.svg"
   inkscape:export-filename="/home/jimmac/gfx/novell/pdes/trunk/docs/BIGmime-text.png"
   inkscape:export-xdpi="240.00000"
   inkscape:export-ydpi="240.00000"
   inkscape:output_extension="org.inkscape.output.svg.inkscape">
  <defs
     id="defs3">
    <inkscape:perspective
       sodipodi:type="inkscape:persp3d"
       inkscape:vp_x="0 : 24 : 1"
       inkscape:vp_y="0 : 1000 : 0"
       inkscape:vp_z="48 : 24 : 1"
       inkscape:persp3d-origin="24 : 16 : 1"
       id="perspective69" />
    <radialGradient
       inkscape:collect="always"
       xlink:href="#linearGradient5060"
       id="radialGradient5031"
       gradientUnits="userSpaceOnUse"
       gradientTransform="matrix(-2.774389,0,0,1.969706,112.7623,-872.8854)"
       cx="605.71429"
       cy="486.64789"
       fx="605.71429"
       fy="486.64789"
       r="117.14286" />
    <linearGradient
       inkscape:collect="always"
       id="linearGradient5060">
      <stop
         style="stop-color:black;stop-opacity:1;"
         offset="0"
         id="stop5062" />
      <stop
         style="stop-color:black;stop-opacity:0;"
         offset="1"
         id="stop5064" />
    </linearGradient>
    <radialGradient
       inkscape:collect="always"
       xlink:href="#linearGradient5060"
       id="radialGradient5029"
       gradientUnits="userSpaceOnUse"
       gradientTransform="matrix(2.774389,0,0,1.969706,-1891.633,-872.8854)"
       cx="605.71429"
       cy="486.64789"
       fx="605.71429"
       fy="486.64789"
       r="117.14286" />
    <linearGradient
       id="linearGradient5048">
      <stop
         style="stop-color:black;stop-opacity:0;"
         offset="0"
         id="stop5050" />
      <stop
         id="stop5056"
         offset="0.5"
         style="stop-color:black;stop-opacity:1;" />
      <stop
         style="stop-color:black;stop-opacity:0;"
         offset="1"
         id="stop5052" />
    </linearGradient>
    <linearGradient
       inkscape:collect="always"
       xlink:href="#linearGradient5048"
       id="linearGradient5027"
       gradientUnits="userSpaceOnUse"
       gradientTransform="matrix(2.774389,0,0,1.969706,-1892.179,-872.8854)"
       x1="302.85715"
       y1="366.64789"
       x2="302.85715"
       y2="609.50507" />
    <linearGradient
       inkscape:collect="always"
       id="linearGradient4542">
      <stop
         style="stop-color:#000000;stop-opacity:1;"
         offset="0"
         id="stop4544" />
      <stop
         style="stop-color:#000000;stop-opacity:0;"
         offset="1"
         id="stop4546" />
    </linearGradient>
    <radialGradient
       inkscape:collect="always"
       xlink:href="#linearGradient4542"
       id="radialGradient4548"
       cx="24.306795"
       cy="42.07798"
       fx="24.306795"
       fy="42.07798"
       r="15.821514"
       gradientTransform="matrix(1.000000,0.000000,0.000000,0.284916,-6.310056e-16,30.08928)"
       gradientUnits="userSpaceOnUse" />
    <linearGradient
       id="linearGradient15662">
      <stop
         style="stop-color:#ffffff;stop-opacity:1.0000000;"
         offset="0.0000000"
         id="stop15664" />
      <stop
         style="stop-color:#f8f8f8;stop-opacity:1.0000000;"
         offset="1.0000000"
         id="stop15666" />
    </linearGradient>
    <radialGradient
       gradientUnits="userSpaceOnUse"
       fy="64.5679"
       fx="20.8921"
       r="5.257"
       cy="64.5679"
       cx="20.8921"
       id="aigrd3">
      <stop
         id="stop15573"
         style="stop-color:#F0F0F0"
         offset="0" />
      <stop
         id="stop15575"
         style="stop-color:#9a9a9a;stop-opacity:1.0000000;"
         offset="1.0000000" />
    </radialGradient>
    <radialGradient
       gradientUnits="userSpaceOnUse"
       fy="114.5684"
       fx="20.8921"
       r="5.256"
       cy="114.5684"
       cx="20.8921"
       id="aigrd2">
      <stop
         id="stop15566"
         style="stop-color:#F0F0F0"
         offset="0" />
      <stop
         id="stop15568"
         style="stop-color:#9a9a9a;stop-opacity:1.0000000;"
         offset="1.0000000" />
    </radialGradient>
    <linearGradient
       id="linearGradient269">
      <stop
         style="stop-color:#a3a3a3;stop-opacity:1.0000000;"
         offset="0.0000000"
         id="stop270" />
      <stop
         style="stop-color:#4c4c4c;stop-opacity:1.0000000;"
         offset="1.0000000"
         id="stop271" />
    </linearGradient>
    <linearGradient
       id="linearGradient259">
      <stop
         style="stop-color:#fafafa;stop-opacity:1.0000000;"
         offset="0.0000000"
         id="stop260" />
      <stop
         style="stop-color:#bbbbbb;stop-opacity:1.0000000;"
         offset="1.0000000"
         id="stop261" />
    </linearGradient>
    <linearGradient
       id="linearGradient12512">
      <stop
         style="stop-color:#ffffff;stop-opacity:1.0000000;"
         offset="0.0000000"
         id="stop12513" />
      <stop
         style="stop-color:#fff520;stop-opacity:0.89108908;"
         offset="0.50000000"
         id="stop12517" />
      <stop
         style="stop-color:#fff300;stop-opacity:0.0000000;"
         offset="1.0000000"
         id="stop12514" />
    </linearGradient>
    <radialGradient
       inkscape:collect="always"
       xlink:href="#linearGradient12512"
       id="radialGradient278"
       gradientUnits="userSpaceOnUse"
       cx="55.000000"
       cy="125.00000"
       fx="55.000000"
       fy="125.00000"
       r="14.375000" />
    <radialGradient
       r="37.751713"
       fy="3.7561285"
       fx="8.8244190"
       cy="3.7561285"
       cx="8.8244190"
       gradientTransform="matrix(0.968273,0.000000,0.000000,1.032767,3.353553,0.646447)"
       gradientUnits="userSpaceOnUse"
       id="radialGradient15656"
       xlink:href="#linearGradient269"
       inkscape:collect="always" />
    <radialGradient
       r="86.708450"
       fy="35.736916"
       fx="33.966679"
       cy="35.736916"
       cx="33.966679"
       gradientTransform="scale(0.960493,1.041132)"
       gradientUnits="userSpaceOnUse"
       id="radialGradient15658"
       xlink:href="#linearGradient259"
       inkscape:collect="always" />
    <radialGradient
       r="38.158695"
       fy="7.2678967"
       fx="8.1435566"
       cy="7.2678967"
       cx="8.1435566"
       gradientTransform="matrix(0.968273,0.000000,0.000000,1.032767,3.353553,0.646447)"
       gradientUnits="userSpaceOnUse"
       id="radialGradient15668"
       xlink:href="#linearGradient15662"
       inkscape:collect="always" />
    <radialGradient
       inkscape:collect="always"
       xlink:href="#aigrd2"
       id="radialGradient2283"
       gradientUnits="userSpaceOnUse"
       gradientTransform="matrix(0.229703,0.000000,0.000000,0.229703,4.613529,3.979808)"
       cx="20.8921"
       cy="114.5684"
       fx="20.8921"
       fy="114.5684"
       r="5.256" />
    <radialGradient
       inkscape:collect="always"
       xlink:href="#aigrd3"
       id="radialGradient2285"
       gradientUnits="userSpaceOnUse"
       gradientTransform="matrix(0.229703,0.000000,0.000000,0.229703,4.613529,3.979808)"
       cx="20.8921"
       cy="64.5679"
       fx="20.8921"
       fy="64.5679"
       r="5.257" />
  </defs>
  <sodipodi:namedview
     id="base"
     pagecolor="#ffffff"
     bordercolor="#666666"
     borderopacity="0.32941176"
     inkscape:pageopacity="0.0"
     inkscape:pageshadow="2"
     inkscape:zoom="1"
     inkscape:cx="-130.2425"
     inkscape:cy="-6.4480487"
     inkscape:current-layer="layer6"
     showgrid="false"
     inkscape:grid-bbox="true"
     inkscape:document-units="px"
     inkscape:window-width="872"
     inkscape:window-height="688"
     inkscape:window-x="166"
     inkscape:window-y="151"
     inkscape:showpageshadow="false" />
  <metadata
     id="metadata4">
    <rdf:RDF>
      <cc:Work
         rdf:about="">
        <dc:format>image/svg+xml</dc:format>
        <dc:type
           rdf:resource="http://purl.org/dc/dcmitype/StillImage" />
        <dc:title>New Document</dc:title>
        <dc:creator>
          <cc:Agent>
            <dc:title>Jakub Steiner</dc:title>
          </cc:Agent>
        </dc:creator>
        <dc:source>http://jimmac.musichall.cz</dc:source>
        <cc:license
           rdf:resource="http://creativecommons.org/licenses/publicdomain/" />
      </cc:Work>
      <cc:License
         rdf:about="http://creativecommons.org/licenses/publicdomain/">
        <cc:permits
           rdf:resource="http://creativecommons.org/ns#Reproduction" />
        <cc:permits
           rdf:resource="http://creativecommons.org/ns#Distribution" />
        <cc:permits
           rdf:resource="http://creativecommons.org/ns#DerivativeWorks" />
      </cc:License>
    </rdf:RDF>
  </metadata>
  <g
     inkscape:label="Shadow"
     id="layer6"
     inkscape:groupmode="layer">
    <g
       style="display:inline"
       id="g5022"
       transform="matrix(2.165152e-2,0,0,1.485743e-2,43.0076,42.68539)">
      <rect
         y="-150.69685"
         x="-1559.2523"
         height="478.35718"
         width="1339.6335"
         id="rect4173"
         style="opacity:0.40206185;color:black;fill:url(#linearGradient5027);fill-opacity:1;fill-rule:nonzero;stroke:none;stroke-width:1;stroke-linecap:round;stroke-linejoin:miter;marker:none;marker-start:none;marker-mid:none;marker-end:none;stroke-miterlimit:4;stroke-dasharray:none;stroke-dashoffset:0;stroke-opacity:1;visibility:visible;display:inline;overflow:visible" />
      <path
         sodipodi:nodetypes="cccc"
         id="path5058"
         d="M -219.61876,-150.68038 C -219.61876,-150.68038 -219.61876,327.65041 -219.61876,327.65041 C -76.744594,328.55086 125.78146,220.48075 125.78138,88.454235 C 125.78138,-43.572302 -33.655436,-150.68036 -219.61876,-150.68038 z "
         style="opacity:0.40206185;color:black;fill:url(#radialGradient5029);fill-opacity:1;fill-rule:nonzero;stroke:none;stroke-width:1;stroke-linecap:round;stroke-linejoin:miter;marker:none;marker-start:none;marker-mid:none;marker-end:none;stroke-miterlimit:4;stroke-dasharray:none;stroke-dashoffset:0;stroke-opacity:1;visibility:visible;display:inline;overflow:visible" />
      <path
         style="opacity:0.40206185;color:black;fill:url(#radialGradient5031);fill-opacity:1;fill-rule:nonzero;stroke:none;stroke-width:1;stroke-linecap:round;stroke-linejoin:miter;marker:none;marker-start:none;marker-mid:none;marker-end:none;stroke-miterlimit:4;stroke-dasharray:none;stroke-dashoffset:0;stroke-opacity:1;visibility:visible;display:inline;overflow:visible"
         d="M -1559.2523,-150.68038 C -1559.2523,-150.68038 -1559.2523,327.65041 -1559.2523,327.65041 C -1702.1265,328.55086 -1904.6525,220.48075 -1904.6525,88.454235 C -1904.6525,-43.572302 -1745.2157,-150.68036 -1559.2523,-150.68038 z "
         id="path5018"
         sodipodi:nodetypes="cccc" />
    </g>
  </g>
  <g
     id="layer1"
     inkscape:label="Base"
     inkscape:groupmode="layer"
     style="display:inline">
    <rect
       ry="1.1490486"
       y="3.6464462"
       x="6.6035528"
       height="40.920494"
       width="34.875000"
       id="rect15391"
       style="color:#000000;fill:url(#radialGradient15658);fill-opacity:1.0000000;fill-rule:nonzero;stroke:url(#radialGradient15656);stroke-width:1.0000000;stroke-linecap:round;stroke-linejoin:round;stroke-miterlimit:4.0000000;stroke-dashoffset:0.0000000;stroke-opacity:1.0000000;marker:none;marker-start:none;marker-mid:none;marker-end:none;visibility:visible;display:block;overflow:visible" />
    <rect
       rx="0.14904857"
       ry="0.14904857"
       y="4.5839462"
       x="7.6660538"
       height="38.946384"
       width="32.775887"
       id="rect15660"
       style="color:#000000;fill:none;fill-opacity:1.0000000;fill-rule:nonzero;stroke:url(#radialGradient15668);stroke-width:1.0000000;stroke-linecap:round;stroke-linejoin:round;stroke-miterlimit:4.0000000;stroke-dashoffset:0.0000000;stroke-opacity:1.0000000;marker:none;marker-start:none;marker-mid:none;marker-end:none;visibility:visible;display:block;overflow:visible" />
    <g
       id="g2270"
       transform="translate(0.646447,-3.798933e-2)">
      <g
         transform="matrix(0.229703,0.000000,0.000000,0.229703,4.967081,4.244972)"
         style="fill:#ffffff;fill-opacity:1.0000000;fill-rule:nonzero;stroke:#000000;stroke-miterlimit:4.0000000"
         id="g1440">
        <radialGradient
           gradientUnits="userSpaceOnUse"
           fy="114.56840"
           fx="20.892099"
           r="5.2560000"
           cy="114.56840"
           cx="20.892099"
           id="radialGradient1442">
          <stop
             id="stop1444"
             style="stop-color:#F0F0F0"
             offset="0" />
          <stop
             id="stop1446"
             style="stop-color:#474747"
             offset="1" />
        </radialGradient>
        <path
           id="path1448"
           d="M 23.428000,113.07000 C 23.428000,115.04300 21.828000,116.64200 19.855000,116.64200 C 17.881000,116.64200 16.282000,115.04200 16.282000,113.07000 C 16.282000,111.09600 17.882000,109.49700 19.855000,109.49700 C 21.828000,109.49700 23.428000,111.09700 23.428000,113.07000 z "
           style="stroke:none" />
        <radialGradient
           gradientUnits="userSpaceOnUse"
           fy="64.567902"
           fx="20.892099"
           r="5.2570000"
           cy="64.567902"
           cx="20.892099"
           id="radialGradient1450">
          <stop
             id="stop1452"
             style="stop-color:#F0F0F0"
             offset="0" />
          <stop
             id="stop1454"
             style="stop-color:#474747"
             offset="1" />
        </radialGradient>
        <path
           id="path1456"
           d="M 23.428000,63.070000 C 23.428000,65.043000 21.828000,66.643000 19.855000,66.643000 C 17.881000,66.643000 16.282000,65.043000 16.282000,63.070000 C 16.282000,61.096000 17.882000,59.497000 19.855000,59.497000 C 21.828000,59.497000 23.428000,61.097000 23.428000,63.070000 z "
           style="stroke:none" />
      </g>
      <path
         id="path15570"
         d="M 9.9950109,29.952326 C 9.9950109,30.405530 9.6274861,30.772825 9.1742821,30.772825 C 8.7208483,30.772825 8.3535532,30.405301 8.3535532,29.952326 C 8.3535532,29.498892 8.7210780,29.131597 9.1742821,29.131597 C 9.6274861,29.131597 9.9950109,29.499122 9.9950109,29.952326 z "
         style="fill:url(#radialGradient2283);fill-rule:nonzero;stroke:none;stroke-miterlimit:4.0000000" />
      <path
         id="path15577"
         d="M 9.9950109,18.467176 C 9.9950109,18.920380 9.6274861,19.287905 9.1742821,19.287905 C 8.7208483,19.287905 8.3535532,18.920380 8.3535532,18.467176 C 8.3535532,18.013742 8.7210780,17.646447 9.1742821,17.646447 C 9.6274861,17.646447 9.9950109,18.013972 9.9950109,18.467176 z "
         style="fill:url(#radialGradient2285);fill-rule:nonzero;stroke:none;stroke-miterlimit:4.0000000" />
    </g>
    <path
       sodipodi:nodetypes="cc"
       id="path15672"
       d="M 11.505723,5.4942766 L 11.505723,43.400869"
       style="fill:none;fill-opacity:0.75000000;fill-rule:evenodd;stroke:#000000;stroke-width:0.98855311;stroke-linecap:butt;stroke-linejoin:miter;stroke-miterlimit:4.0000000;stroke-opacity:0.017543854" />
    <path
       sodipodi:nodetypes="cc"
       id="path15674"
       d="M 12.500000,5.0205154 L 12.500000,43.038228"
       style="fill:none;fill-opacity:0.75000000;fill-rule:evenodd;stroke:#ffffff;stroke-width:1.0000000;stroke-linecap:butt;stroke-linejoin:miter;stroke-miterlimit:4.0000000;stroke-opacity:0.20467831" />
  </g>
  <g
     inkscape:groupmode="layer"
     id="layer4"
     inkscape:label="new"
     style="display:inline">
    <path
       sodipodi:type="arc"
       style="color:#000000;fill:url(#radialGradient278);fill-opacity:1.0000000;fill-rule:nonzero;stroke:none;stroke-width:1.2500002;stroke-linecap:butt;stroke-linejoin:round;stroke-miterlimit:4.0000000;stroke-dashoffset:0.0000000;stroke-opacity:1.0000000;marker:none;marker-start:none;marker-mid:none;marker-end:none;visibility:visible;display:block"
       id="path12511"
       sodipodi:cx="55.000000"
       sodipodi:cy="125.00000"
       sodipodi:rx="14.375000"
       sodipodi:ry="14.375000"
       d="M 69.375000 125.00000 A 14.375000 14.375000 0 1 1  40.625000,125.00000 A 14.375000 14.375000 0 1 1  69.375000 125.00000 z"
       transform="matrix(0.783292,0.000000,0.000000,0.783292,-6.340883,-86.65168)"
       inkscape:export-filename="/home/jimmac/ximian_art/icons/nautilus/suse93/stock_new-16.png"
       inkscape:export-xdpi="33.852203"
       inkscape:export-ydpi="33.852203" />
  </g>
</svg>

<?xml version="1.0" encoding="UTF-8" standalone="no"?><!-- Created with Inkscape (http://www.inkscape.org/) --><svg xmlns:dc="http://purl.org/dc/elements/1.1/" xmlns:cc="http://creativecommons.org/ns#" xmlns:rdf="http://www.w3.org/1999/02/22-rdf-syntax-ns#" xmlns:svg="http://www.w3.org/2000/svg" xmlns="http://www.w3.org/2000/svg" xmlns:xlink="http://www.w3.org/1999/xlink" xmlns:sodipodi="http://sodipodi.sourceforge.net/DTD/sodipodi-0.dtd" xmlns:inkscape="http://www.inkscape.org/namespaces/inkscape" width="48" height="48" id="svg249"><defs><linearGradient id="0" gradientUnits="userSpaceOnUse" gradientTransform="matrix(2.77439 0 0 1.96971-1892.18-872.89)" x1="302.86" y1="366.65" x2="302.86" y2="609.51"><stop stop-opacity="0"/><stop offset=".5"/><stop offset="1" stop-opacity="0"/></linearGradient><linearGradient id="1"><stop/><stop offset="1" stop-opacity="0"/></linearGradient><radialGradient xlink:href="#B" id="8" gradientUnits="userSpaceOnUse" cx="9.413" cy="18.811" fx="9.413" fy="18.811" r="1.208"/><radialGradient xlink:href="#1" id="9" gradientUnits="userSpaceOnUse" gradientTransform="matrix(2.77439 0 0 1.96971-1891.63-872.89)" cx="605.71" cy="486.65" fx="605.71" fy="486.65" r="117.14"/><radialGradient gradientUnits="userSpaceOnUse" fy="114.57" fx="20.892" r="5.256" cy="114.57" cx="20.892" id="A" xlink:href="#B"/><radialGradient xlink:href="#1" id="7" gradientUnits="userSpaceOnUse" gradientTransform="matrix(-2.77439 0 0 1.96971 112.76-872.89)" cx="605.71" cy="486.65" fx="605.71" fy="486.65" r="117.14"/><radialGradient id="6" gradientUnits="userSpaceOnUse" cx="55" cy="125" fx="55" fy="125" r="14.375"><stop stop-color="#fff"/><stop offset=".5" stop-color="#fff520" stop-opacity=".891"/><stop offset="1" stop-color="#fff300" stop-opacity="0"/></radialGradient><radialGradient r="86.71" fy="35.737" fx="33.967" cy="35.737" cx="33.967" gradientTransform="scale(.96049 1.04113)" gradientUnits="userSpaceOnUse" id="2"><stop stop-color="#fafafa"/><stop offset="1" stop-color="#bbb"/></radialGradient><radialGradient gradientUnits="userSpaceOnUse" fy="64.57" fx="20.892" r="5.257" cy="64.57" cx="20.892" id="B"><stop stop-color="#f0f0f0"/><stop offset="1" stop-color="#9a9a9a"/></radialGradient><radialGradient xlink:href="#A" id="3" gradientUnits="userSpaceOnUse" cx="9.413" cy="30.3" fx="9.413" fy="30.3" r="1.207"/><radialGradient r="37.752" fy="3.756" fx="8.824" cy="3.756" cx="8.824" gradientTransform="matrix(.96827 0 0 1.03277 3.354.646)" gradientUnits="userSpaceOnUse" id="5"><stop stop-color="#a3a3a3"/><stop offset="1" stop-color="#4c4c4c"/></radialGradient><radialGradient r="38.16" fy="7.268" fx="8.144" cy="7.268" cx="8.144" gradientTransform="matrix(.96827 0 0 1.03277 3.354.646)" gradientUnits="userSpaceOnUse" id="4"><stop stop-color="#fff"/><stop offset="1" stop-color="#f8f8f8"/></radialGradient></defs><sodipodi:namedview pagecolor="#ffffff" bordercolor="#666666" borderopacity="0.32941176" showgrid="false"/><metadata><rdf:RDF><cc:Work><dc:format>image/svg+xml</dc:format><dc:type rdf:resource="http://purl.org/dc/dcmitype/StillImage"/><dc:title>New Document</dc:title><dc:creator><cc:Agent><dc:title>Jakub Steiner</dc:title></cc:Agent></dc:creator><dc:source>http://jimmac.musichall.cz</dc:source><cc:license rdf:resource="http://creativecommons.org/licenses/publicdomain/"/></cc:Work><cc:License rdf:about="http://creativecommons.org/licenses/publicdomain/"><cc:permits rdf:resource="http://creativecommons.org/ns#Reproduction"/><cc:permits rdf:resource="http://creativecommons.org/ns#Distribution"/><cc:permits rdf:resource="http://creativecommons.org/ns#DerivativeWorks"/></cc:License></rdf:RDF></metadata><g stroke-linecap="round" color="#000"><g transform="matrix(.02165 0 0 .01486 43.01 42.685)"><path marker="none" opacity=".402" fill="url(#0)" d="m-1559.25-150.7h1339.63v478.36h-1339.63z"/><path d="m-219.62-150.68c0 0 0 478.33 0 478.33 142.87.9 345.4-107.17 345.4-239.2 0-132.03-159.44-239.13-345.4-239.13" marker="none" opacity=".402" fill="url(#9)"/><path d="m-1559.25-150.68c0 0 0 478.33 0 478.33-142.87.9-345.4-107.17-345.4-239.2 0-132.03 159.44-239.13 345.4-239.13" marker="none" opacity=".402" fill="url(#7)"/></g><g display="block" stroke-linejoin="round"><rect ry="1.149" y="3.646" x="6.604" height="40.92" width="34.875" marker="none" fill="url(#2)" stroke="url(#5)" rx="1.149"/><rect rx=".149" ry=".149" y="4.584" x="7.666" height="38.946" width="32.776" marker="none" fill="none" stroke="url(#4)"/></g></g><g transform="translate(.646-.038)"><g transform="matrix(.2297 0 0 .2297 4.967 4.245)" fill="#fff"><path d="m23.428 113.07c0 1.973-1.6 3.572-3.573 3.572-1.974 0-3.573-1.6-3.573-3.572 0-1.974 1.6-3.573 3.573-3.573 1.973 0 3.573 1.6 3.573 3.573"/><path d="m23.428 63.07c0 1.973-1.6 3.573-3.573 3.573-1.974 0-3.573-1.6-3.573-3.573 0-1.974 1.6-3.573 3.573-3.573 1.973 0 3.573 1.6 3.573 3.573"/></g><path d="m9.995 29.952c0 .453-.368.82-.821.82-.453 0-.821-.368-.821-.82 0-.453.368-.821.821-.821.453 0 .821.368.821.821" fill="url(#3)"/><path d="m9.995 18.467c0 .453-.368.821-.821.821-.453 0-.821-.368-.821-.821 0-.453.368-.821.821-.821.453 0 .821.368.821.821" fill="url(#8)"/></g><g fill="none" fill-rule="evenodd" fill-opacity=".75"><path d="m11.506 5.494v37.907" stroke-opacity=".018" stroke="#000" stroke-width=".989"/><path d="m12.5 5.02v38.02" stroke-opacity=".205" stroke="#fff"/></g><path d="M69.375 125A14.375 14.375 0 1 1 40.625 125 14.375 14.375 0 1 1 69.375 125" transform="matrix(.78329 0 0 .78329-6.341-86.65)" fill="url(#6)" display="block" stroke-linejoin="round" marker="none" color="#000" stroke-width="1.25"/></svg>
